assets/magic/mono.svg

<svg viewBox="0 0 24 24" xmlns="http://www.w3.org/2000/svg"><path d="m12 0a29.658 29.658 0 0 1 -3.611 3.53 27.326 27.326 0 0 1 1.34 8.47c0 2.948-.47 5.792-1.34 8.47a29.658 29.658 0 0 1 3.611 3.53 29.658 29.658 0 0 1 3.611-3.53 27.326 27.326 0 0 1 -1.34-8.47c0-2.948.47-5.792 1.34-8.47a29.658 29.658 0 0 1 -3.611-3.53zm6.109 5.381a27.362 27.362 0 0 0 -.809 6.619c0 2.278.28 4.494.809 6.619a30.696 30.696 0 0 1 4.391-2.424 13.662 13.662 0 0 1 -.657-4.195c0-1.46.23-2.868.657-4.195a30.698 30.698 0 0 1 -4.391-2.424zm-12.218 0a30.7 30.7 0 0 1 -4.391 2.424c.427 1.327.657 2.736.657 4.195 0 1.46-.23 2.868-.657 4.195a30.696 30.696 0 0 1 4.391 2.424c.529-2.125.809-4.341.809-6.619s-.28-4.494-.809-6.619z"/></svg>

<svg xmlns="http://www.w3.org/2000/svg" viewBox="0 0 24 24"><path d="M12 0a29.7 29.7 0 0 1-3.611 3.53A27.3 27.3 0 0 1 9.729 12c0 2.948-.47 5.792-1.34 8.47A29.7 29.7 0 0 1 12 24a29.7 29.7 0 0 1 3.611-3.53 27.3 27.3 0 0 1-1.34-8.47c0-2.948.47-5.792 1.34-8.47A29.7 29.7 0 0 1 12 0m6.109 5.381A27.4 27.4 0 0 0 17.3 12c0 2.278.28 4.494.809 6.619a30.7 30.7 0 0 1 4.391-2.424A13.7 13.7 0 0 1 21.843 12c0-1.46.23-2.868.657-4.195a30.7 30.7 0 0 1-4.391-2.424m-12.218 0A31 31 0 0 1 1.5 7.805 13.7 13.7 0 0 1 2.157 12c0 1.46-.23 2.868-.657 4.195a30.7 30.7 0 0 1 4.391 2.424C6.42 16.494 6.7 14.278 6.7 12s-.28-4.494-.809-6.619"/></svg>
